build/images/svgs/home_banner/NavigationToolbarTop.svg

<svg xmlns="http://www.w3.org/2000/svg" viewBox="0 0 50 50" enable-background="new 0 0 50 50" style="fill: #fff; opacity:.2;">
    <path style="text-indent:0;text-align:start;line-height:normal;text-transform:none;block-progression:tb;-inkscape-font-specification:Bitstream Vera Sans" d="M 3 5 C 1.3545455 5 0 6.3545455 0 8 L 0 17.8125 A 1.0001 1.0001 0 0 0 0 17.90625 L 0 18 L 0 19 L 0 42 C 0 43.645455 1.3545455 45 3 45 L 47 45 C 48.645455 45 50 43.645455 50 42 L 50 18 A 1.0001 1.0001 0 0 0 50 17.90625 L 50 8 C 50 6.3545455 48.645455 5 47 5 L 3 5 z M 3 7 L 47 7 C 47.554545 7 48 7.4454545 48 8 L 48 17 L 2 17 L 2 8 C 2 7.4454545 2.4454545 7 3 7 z M 7 9 C 5.3549901 9 4 10.354991 4 12 C 4 13.645009 5.3549901 15 7 15 C 8.6450099 15 10 13.645009 10 12 C 10 10.354991 8.6450099 9 7 9 z M 14 9 C 12.35499 9 11 10.35499 11 12 C 11 13.64501 12.35499 15 14 15 C 15.64501 15 17 13.64501 17 12 C 17 10.35499 15.64501 9 14 9 z M 19.8125 9 A 1.0001 1.0001 0 0 0 19 10 L 19 14 A 1.0001 1.0001 0 0 0 20 15 L 45 15 A 1.0001 1.0001 0 0 0 46 14 L 46 10 A 1.0001 1.0001 0 0 0 45 9 L 20 9 A 1.0001 1.0001 0 0 0 19.90625 9 A 1.0001 1.0001 0 0 0 19.8125 9 z M 7 11 C 7.5641291 11 8 11.435871 8 12 C 8 12.564129 7.5641291 13 7 13 C 6.4358709 13 6 12.564129 6 12 C 6 11.435871 6.4358709 11 7 11 z M 14 11 C 14.564128 11 15 11.435872 15 12 C 15 12.564128 14.564128 13 14 13 C 13.435872 13 13 12.564128 13 12 C 13 11.435872 13.435872 11 14 11 z M 21 11 L 44 11 L 44 13 L 21 13 L 21 11 z M 2 19 L 48 19 L 48 42 C 48 42.554545 47.554545 43 47 43 L 3 43 C 2.4454545 43 2 42.554545 2 42 L 2 19 z" color="#000" overflow="visible" enable-background="accumulate" font-family="Bitstream Vera Sans"/>
</svg>

<svg xmlns="http://www.w3.org/2000/svg" viewBox="0 0 50 50" fill="#fff" opacity=".2"><path style="text-indent:0;text-align:start;line-height:normal;text-transform:none;block-progression:tb;-inkscape-font-specification:Bitstream Vera Sans" d="M3 5C1.355 5 0 6.355 0 8v9.813a1 1 0 0 0 0 .093V42c0 1.645 1.355 3 3 3h44c1.645 0 3-1.355 3-3V18a1 1 0 0 0 0-.094V8c0-1.645-1.355-3-3-3H3zm0 2h44c.555 0 1 .445 1 1v9H2V8c0-.555.445-1 1-1zm4 2c-1.645 0-3 1.355-3 3s1.355 3 3 3 3-1.355 3-3-1.355-3-3-3zm7 0c-1.645 0-3 1.355-3 3s1.355 3 3 3 3-1.355 3-3-1.355-3-3-3zm5.813 0A1 1 0 0 0 19 10v4a1 1 0 0 0 1 1h25a1 1 0 0 0 1-1v-4a1 1 0 0 0-1-1H20a1 1 0 0 0-.094 0 1 1 0 0 0-.093 0zM7 11c.564 0 1 .436 1 1 0 .564-.436 1-1 1-.564 0-1-.436-1-1 0-.564.436-1 1-1zm7 0c.564 0 1 .436 1 1 0 .564-.436 1-1 1-.564 0-1-.436-1-1 0-.564.436-1 1-1zm7 0h23v2H21v-2zM2 19h46v23c0 .555-.445 1-1 1H3c-.555 0-1-.445-1-1V19z" color="#000" overflow="visible" font-family="Bitstream Vera Sans"/></svg>
